src/svg/up-circled2.svg

<svg height="1000" width="857.143" xmlns="http://www.w3.org/2000/svg"><path d="M623.844 488.872q-4.464 11.16 -16.74 11.16h-107.136v196.416q0 7.812 -5.022 12.834t-12.834 5.022h-107.136q-7.812 0 -12.834 -5.022t-5.022 -12.834v-196.416h-107.136q-7.812 0 -12.834 -5.022t-5.022 -12.834q0 -6.696 5.58 -13.392l178.002 -178.002q6.138 -5.022 12.834 -5.022t12.834 5.022l178.56 178.56q8.37 8.928 3.906 19.53zm-195.3 -292.392q-82.584 0 -152.334 40.734t-110.484 110.484 -40.734 152.334 40.734 152.334 110.484 110.484 152.334 40.734 152.334 -40.734 110.484 -110.484 40.734 -152.334 -40.734 -152.334 -110.484 -110.484 -152.334 -40.734zm428.544 303.552q0 116.622 -57.474 215.109t-155.961 155.961 -215.109 57.474 -215.109 -57.474 -155.961 -155.961 -57.474 -215.109 57.474 -215.109 155.961 -155.961 215.109 -57.474 215.109 57.474 155.961 155.961 57.474 215.109z"/></svg>

<svg height="1000" width="857.1" xmlns="http://www.w3.org/2000/svg"><path d="M623.9 488.8Q619.4 500 607.1 500H500v196.4q0 7.8 -5 12.9t-12.9 5H375q-7.8 0 -12.8 -5t-5.1 -12.9V500H250q-7.8 0 -12.8 -5t-5.1 -12.9q0 -6.7 5.6 -13.4l178 -178q6.2 -5 12.9 -5t12.8 5L620 469.3q8.3 8.9 3.9 19.5zM428.6 196.4q-82.6 0 -152.4 40.8T165.7 347.7 125 500t40.7 152.3 110.5 110.5 152.4 40.8 152.3 -40.8T691.4 652.3 732.1 500 691.4 347.7 580.9 237.2 428.6 196.4zM857.1 500q0 116.6 -57.4 215.1t-156 156 -215.1 57.5T213.4 871.1 57.5 715.1 0 500 57.5 284.9t155.9 -156T428.6 71.4t215.1 57.5 156 156T857.1 500z"/></svg>
